X:14569
T:Rosina
R:foliada
O:Galicia (Spain)
B:Xose Luis Foxo- Os segredos da Gaita
Z:Transcrito por Antonio-Nil
C:Popular
M:3/4
L:1/8
K:AMix
A2 |:B2A2G2| F2F2A2| c2B3A| G4c2| c2d2c2| B2A2c2| B2A3G| F4A2| B2A3G| F4A2| c2B3A| G4c2|
c2d2c2| B2A2c2| B2A3G| F6 |1 F4A2 :|2 c3BA2| A2A2c2| B4A2- | A6 | A3GF2| F2A2c2| B3AG2-| G6|
c3BA2| A2A2c2| B4A2-| A6 |: A3GF2| F2A2c2| B3AG2| c2d4| c3BA2| c2B4| A3G2F2-|1 F6 :|2 F4A2 ||
B2A2G2| F2F2A2| c2B3A| G4c2| c2d2c2| B2A2c2| B2A3G| F4A2| B2A3G| F4A2| c2B3A| G4c2|
c2d2c2| B2A2c2| B2A3G|| F4A2| d ||
